build/img/group.svg

<svg width="35" height="19" viewBox="0 0 35 19" fill="none" xmlns="http://www.w3.org/2000/svg">
<path d="M31.2638 11.8931C31.639 11.3746 31.8609 10.7384 31.8609 10.0511V5.94336C31.8609 5.56581 31.5548 5.25977 31.1773 5.25977H28.1222C26.7099 5.25977 25.5609 6.40875 25.5609 7.82105V10.0511C25.5609 10.738 25.7826 11.3738 26.1573 11.8921C25.69 11.9679 25.2404 12.1176 24.8211 12.3367C23.8713 10.9195 22.3152 9.94211 20.5271 9.77723C20.5201 9.77524 20.513 9.77381 20.506 9.7721C21.1457 9.05768 21.5357 8.11514 21.5357 7.08291V1.5C21.5357 1.12245 21.2296 0.816406 20.8521 0.816406H16.6999C14.9157 0.816406 13.4643 2.26788 13.4643 4.05199V7.08284C13.4643 8.11507 13.8543 9.05761 14.494 9.77203C14.487 9.77374 14.4799 9.77524 14.4729 9.77716C12.6846 9.94204 11.1284 10.9196 10.1787 12.337C9.75926 12.1179 9.30959 11.9681 8.84249 11.8923C9.21724 11.374 9.43906 10.7381 9.43906 10.0511V5.94336C9.43906 5.56581 9.13295 5.25977 8.75547 5.25977H5.70035C4.28805 5.25977 3.13906 6.40875 3.13906 7.82105V10.0511C3.13906 10.7385 3.36103 11.3746 3.73618 11.8931C1.62025 12.2389 0 14.0791 0 16.2913V18.3164C0 18.694 0.306113 19 0.683594 19H34.3164C34.6939 19 35 18.694 35 18.3164V16.2913C35 14.0791 33.3797 12.2389 31.2638 11.8931ZM4.50625 7.82105C4.50625 7.16262 5.04191 6.62695 5.70035 6.62695H8.07188V7.4595C8.07188 7.86774 7.73979 8.19983 7.33161 8.19983H4.50625V7.82105ZM4.50625 9.56695H7.33161C7.59206 9.56695 7.84144 9.51917 8.07188 9.43235V10.0511C8.07188 11.0341 7.27214 11.8339 6.28906 11.8339C5.30599 11.8339 4.50625 11.0341 4.50625 10.0511V9.56695ZM6.72978 13.2011L6.28906 13.6418L5.84835 13.2011H6.72978ZM9.19789 15.564V17.6328H1.36719V16.2913C1.36719 14.758 2.48985 13.4826 3.95616 13.2424L5.80569 15.0919C5.93394 15.2201 6.10777 15.2921 6.28906 15.2921C6.47035 15.2921 6.64419 15.2201 6.77243 15.0919L8.62251 13.2417C8.94927 13.2949 9.26352 13.4003 9.55637 13.5544C9.32477 14.1809 9.19789 14.8579 9.19789 15.564ZM17.5001 9.75146C16.0286 9.75146 14.8315 8.55435 14.8315 7.08291V6.1794H18.917C19.37 6.1794 19.7965 6.06367 20.1686 5.86037V7.08291C20.1686 8.55435 18.9715 9.75146 17.5001 9.75146ZM18.6916 11.1186L17.5 12.3102L16.3084 11.1186H18.6916ZM14.8314 4.05199H14.8315C14.8315 3.02175 15.6696 2.18359 16.6999 2.18359H20.1685V3.56063C20.1685 4.25078 19.607 4.81229 18.9169 4.81229H14.8314V4.05199ZM24.4349 17.6328H23.1055H11.8945H10.5651V16.2656H15.0163C15.3938 16.2656 15.6999 15.9596 15.6999 15.582C15.6999 15.2045 15.3938 14.8984 15.0163 14.8984H10.6151C10.9081 12.9556 12.4633 11.422 14.4158 11.1595L17.0166 13.7603C17.1501 13.8938 17.3251 13.9605 17.5 13.9605C17.6749 13.9605 17.8499 13.8938 17.9834 13.7603L20.5842 11.1595C22.755 11.4513 24.4349 13.3146 24.4349 15.564V17.6328ZM26.9281 7.82105C26.9281 7.16262 27.4638 6.62695 28.1222 6.62695H30.4937V7.4595C30.4937 7.86774 30.1617 8.19983 29.7535 8.19983H26.9281V7.82105ZM26.9281 9.56695H29.7535C30.0139 9.56695 30.2633 9.51917 30.4937 9.43235V10.0511C30.4937 11.0341 29.694 11.8339 28.7109 11.8339C27.7279 11.8339 26.9281 11.0341 26.9281 10.0511V9.56695ZM29.1516 13.2011L28.7109 13.6418L28.2702 13.2011H29.1516ZM25.802 17.6328V15.564C25.802 14.8578 25.6752 14.1809 25.4435 13.5542C25.7362 13.4 26.0504 13.2947 26.3772 13.2416L28.2275 15.0919C28.3557 15.2201 28.5296 15.2921 28.7109 15.2921C28.8922 15.2921 29.066 15.2201 29.1942 15.0919L31.0438 13.2424C32.5101 13.4826 33.6327 14.758 33.6327 16.2913V17.6328H25.802Z" fill="#00B2FF"/>
</svg>

<svg width="35" height="19" fill="none" xmlns="http://www.w3.org/2000/svg"><path d="M31.264 11.893a3.132 3.132 0 00.597-1.842V5.943a.684.684 0 00-.684-.683h-3.055a2.564 2.564 0 00-2.561 2.561v2.23c0 .687.222 1.323.596 1.841a4.402 4.402 0 00-1.336.445 5.816 5.816 0 00-4.294-2.56l-.021-.005a4.02 4.02 0 001.03-2.69V1.5a.684.684 0 00-.684-.684H16.7a3.24 3.24 0 00-3.236 3.236v3.03a4.02 4.02 0 001.03 2.69l-.021.005a5.816 5.816 0 00-4.294 2.56c-.42-.22-.87-.369-1.337-.445a3.132 3.132 0 00.597-1.84v-4.11a.684.684 0 00-.684-.683H5.7A2.564 2.564 0 003.14 7.82v2.23c0 .688.221 1.324.596 1.842A4.464 4.464 0 000 16.291v2.025c0 .378.306.684.684.684h33.632a.684.684 0 00.684-.684v-2.025a4.464 4.464 0 00-3.736-4.398zM4.506 7.821c0-.658.536-1.194 1.194-1.194h2.372v.833a.74.74 0 01-.74.74H4.506v-.38zm0 1.746h2.826c.26 0 .51-.048.74-.135v.62c0 .982-.8 1.782-1.783 1.782-.983 0-1.783-.8-1.783-1.783v-.484zm2.224 3.634l-.44.44-.442-.44h.882zm2.468 2.363v2.069h-7.83V16.29a3.095 3.095 0 012.588-3.049l1.85 1.85a.684.684 0 00.966 0l1.85-1.85c.327.053.642.158.934.312a5.784 5.784 0 00-.358 2.01zM17.5 9.751a2.672 2.672 0 01-2.668-2.668v-.904h4.085c.453 0 .88-.115 1.252-.319v1.223A2.672 2.672 0 0117.5 9.75zm1.192 1.368L17.5 12.31l-1.192-1.191h2.384zm-3.86-7.067A1.87 1.87 0 0116.7 2.184h3.469V3.56c0 .69-.562 1.251-1.252 1.251H14.83v-.76zm9.603 13.58h-13.87v-1.366h4.451a.684.684 0 100-1.368h-4.4a4.455 4.455 0 013.8-3.739l2.6 2.601a.682.682 0 00.967 0l2.601-2.6a4.451 4.451 0 013.85 4.404v2.069zm2.493-9.811c0-.658.536-1.194 1.194-1.194h2.372v.833a.74.74 0 01-.74.74h-2.826v-.38zm0 1.746h2.825c.26 0 .51-.048.74-.135v.62c0 .982-.799 1.782-1.782 1.782s-1.783-.8-1.783-1.783v-.484zm2.224 3.634l-.441.44-.44-.44h.88zm-3.35 4.432v-2.069c0-.706-.127-1.383-.358-2.01.292-.154.606-.26.933-.312l1.85 1.85a.684.684 0 00.967 0l1.85-1.85a3.095 3.095 0 012.589 3.05v1.34h-7.831z" fill="#00B2FF"/></svg>
